X:3
T:Come if you can
M:2/4
L:1/8
B:Thompson's Compleat Collection of 200 Favourite Country Dances, vol. 2 (London, 1765)
Z:Transcribed and edited by Flynn Titford-Mock, 2007
Z:abc's:AK/Fiddler's Companion
K:D
DF/A/ DF/A/ | A/F/D/F/ E/C/B,/A,/ | DF/A/ d/f/e/d/ | c/A/E/^G/ AA, :|
|: Ac/e/ g/e/c/A/ | Ad/f/ a/f/d/A/ | FA/d/f/ E/G/c/g/ | f/d/A/c/ dD :|

